core/solid/computer-devices/gmail.svg

<svg xmlns="http://www.w3.org/2000/svg" fill="none" viewBox="0 0 14 14" id="Gmail--Streamline-Core">
  <desc>
    Gmail Streamline Icon: https://streamlinehq.com
  </desc>
  <g id="gmail">
    <path id="Subtract" fill="#000000" fill-rule="evenodd" d="M0.0859375 6.78689v4.34881c0 0.5073 0.4126965 0.9185 0.9217825 0.9185h2.76535V9.17382L0.0859375 6.78689ZM9.0625 8.52699 7.04295 9.83438 5.02344 8.52701v-4.9403l2.01951 1.29642L9.0625 3.5867v4.94029Zm1.2504 0.64681v2.8804h2.7653c0.5091 0 0.9218 -0.4112 0.9218 -0.9185V6.78688L10.3129 9.1738ZM14 5.33063l-3.6875 2.38716V2.78428l0.0004 -0.00024v-0.00007l0.8466 -0.54349C12.3864 1.45461 14 2.33235 14 3.78564v1.54499ZM3.77307 2.78398v0.00006l0.00037 0.00024V7.7178L0.0859375 5.33063V3.78564c0 -1.45329 1.6135725 -2.33103 2.8404825 -1.54516l0.84665 0.5435Z" clip-rule="evenodd" stroke-width="1"></path>
  </g>
</svg>

<svg xmlns="http://www.w3.org/2000/svg" fill="none" viewBox="0 0 14 14"><g id="gmail"><path id="Subtract" fill="#3e3e3e" fill-rule="evenodd" d="M.086 6.787v4.349a.92.92 0 0 0 .922.918h2.765v-2.88L.086 6.787Zm8.976 1.74L7.043 9.834l-2.02-1.307v-4.94l2.02 1.296 2.02-1.296v4.94Zm1.25.647v2.88h2.766a.92.92 0 0 0 .922-.918v-4.35l-3.687 2.388ZM14 5.33l-3.688 2.387V2.784l.848-.544c1.226-.785 2.84.092 2.84 1.546V5.33ZM3.773 2.784v4.934L.086 5.33V3.786c0-1.454 1.614-2.331 2.84-1.546l.847.544Z" clip-rule="evenodd"></path></g></svg>
